X:1
T:Tu me ne puoi
T:Tu me ne puoi
T:Barbara Strozzi
T:Source : Arie---Venetia---F.Magni (Gardano)---1664. Editor : André Vierendeels (20/03/15).
T:Notes : Original clefs : C1, F4 Editorial accidentals above the staff Dotted brackets indicate black notes m 112 in S, quarter "do" written as eighth in original print 
C:Barbara Strozzi
%%score 1 { 2 | 3 }
L:1/8
Q:1/4=86
M:4/4
K:Bb
V:1 treble nm="Soprano" snm="S"
V:2 treble nm="BC" snm="BC"
V:3 bass 
V:1
 ef/g/ c=B d2 d2 | GA/=B/ cd BG e2- | ec/B/ AB B>A G2 | ef/g/ c=B d2 d2 | Bc/d/ G^F AA f2- | %5
w: Tu me ne puoi ben di- re,|tu me ne puoi ben di- re, tu|_ me ne puoi ben di- re, _|tu me ne puoi ben di- re,|tu me ne puoi ben di- re, tu|
 fe/d/ cd cB d2- | dc/B/ AG ^FD d2 | ec/B/ AB B>A G2 | ec/B/ AB B>A G2!fine! ||[M:3/2] z4 e6 d2 | %10
w: _ me ne puoi ben di- re, tu|_ me ne puoi ben di- re, tu|tu me ne puoi ben di- re, _|tu me ne puoi ben di- re, _|Ar- d'ogn-|
 c4 =B4 c4 | c4 =B4 c2 d2 | e6 d2 c4 | z4 c2 B2 _A2 G2 | _A2 G2 G4 =A2 B2 | c2 E2 F6 G2 | %16
w: hor _ mi|strug- ge in _|pe- ne _|i- * do- *|la- * tro le _|_ ca- te- *|
 _A2 G6 G4 | z4 B6 A2 | G4 ^F4 G4 | G4 ^F4 G2 A2 | B6 A2 G4 | z4 g2 f2 e2 d2 | e2 d2 d8 | %23
w: * * ne,|ar- d'ogn-|hor _ mi|strug- go in _|pe- ne, _|i- * do- *|la- * tro|
 e2 d2 d8 | d8 e2 f2 | d8 d4 | e4 d8 | e4 d8 | c4 B8 | _A2 G2 ^F2 G2 B2 cd | B3 A G8 | G8 =B4 | %32
w: le _ ca-|te- * *|n'e- a-|do- ro|la ca-|gion del|mio _ _ _ mo- * *|* ri- *|r'e a-|
 c4 =B8 | c4 =B8 | c4 e8 | _d2 c2 =B2 c2 e2 fg | e3 d c8 |[M:4/4] c2 ge e/d/ c3 | z2 dB B/A/G e2- | %39
w: do- ro|la ca-|gion del|mio _ _ _ mo- * *|* ri- *|re, tut- to'è ver, _ _|tut- to'è ver _ _ ma|
 e/f/g cd B3 A | G2 Gc A2 Ad | =B3 e c f3- | f/g/_a fg e>d c2 | ef/g/ c=B d2 d2 :| z2 BB ee ef/g/ | %45
w: _ _ _ vo ser- vi- *|re, tut- to'è ver, tut- to'è|ver, è ver ma|_ _ _ vo ser- vi- re *|tu me ne puoi ben di- re,|Sen- ti Lil- la in- e- so-|
 e>e e B2 B/=B/ B>c | c2 e3 e/e/ e>f | f2 z/ g/f/e/ e>c d/e/f/e/ | e3 d e4 |"^Presto" z2 c=B cdef | %50
w: ra- bi- le mo- stro di cru- del-|ta, mo- stro di cru- del-|ta, co- * * m'io di _ _ _ _|fe- del- ta,|Ar- ma'l ci- glio'e scoc- ca'il|
 g f/e/ d/e/c/d/ =B2 G^F | GABc d c/B/ A/B/G/A/ | ^F2 A/B/ c/A/ B2 c/d/ e/c/ | %53
w: guar- do, _ _ _ _ _ _ ar- ma'l|ci- glio'e scoc- ca'il guar- do, _ _ _ _ _|_ pia- * ga'l _ sen, pia- * ga'l _|
 d2 f/d/e/f/ BB d/B/c/d/ | GA B/c/B/c/ d/e/d/e/ f/g/f/e/ | d/e/d/c/ Bd/e/ fB/c/ d/f/e/d/ | %56
w: sen da _ _ _ mor- te, da _ _ _|mor- te'al- l'al- * * * * * * * * * * *||
 c/f/e/d/ c2 B d2 e/f/ | B2 BA Bcd=e | f e/d/ c/d/B/c/ A2 c/B/ c/d/ | e g/f/ e/f/d/e/ ccde | %60
w: * * * * * ma t'a- do- re-|ro, ar- ma'l ci- glio'e scoc- ca'l|guar- do _ _ _ _ _ _ pia- * ga'l _|sen, _ _ _ _ _ _ _ da mor- te'al-|
 f_a/g/ f/e/d/c/ ce/d/ c/e/d/c/ | =B2 G^F GABc | d c/B/ A/B/G/A/ ^F2 A/B/ c/A/ | %63
w: l'al- * * * * * * ma, _ _ _ _ _ _|_ ar- ma'l ci- glio'e scoc- ca'l|guar- do, _ _ _ _ _ _ pia- * ga'l _|
 Bd/c/ B/c/A/B/ GGAB | ce/d/ c/B/A/G/ Gd/c/ B/c/A/B/ |"^Adagio" G d2 e/f/ c2 c=B | %66
w: sen _ _ _ _ _ _ _ da mor- te'al-|l'al- * * * * * * ma, _ _ _ _ _ _|_ t'a- do- re- ro, ar- ma'l|
 cdef g f/e/ d/e/c/d/ | =B2 e d/c/ c2 de | fg=Bc ef/e/ d2 | cg/f/ e/f/d/e/ c4 |[M:3/2] e4 f4 g4 | %71
w: ci- glio'e scoc- ca'l guar- do _ _ _ _ _|_ pia- ga'l _ sen, pia- ga'l|sen, da mor- te'al- l'al- * * *|ma, _ _ _ _ _ _ _|t'a- do- re-|
 g6 fe d4 | c4 d4 e4 | e6 dc =B4 | G4 G4 G4 | _A4 G8 | c4 c4 c4 | c4 =B8 | e4 e4 e4 | e4- d4 d4 | %80
w: ro, * * *|t'a- do- re-|ro * * *|ne mu- te-|ro, *|ne mu- te-|ro, *|ne mu- te-|ro * con|
 c4 f8 | d4 g8 | e4 _A8 | G8 G4- | G4 G6 F2 | G8 z4 | B4 c4 d4 | e2 A2 A4 B2 c2 | d>c B4 d6- | %89
w: te fe-|de, fe-|de, fe-|de'o con-|* stan- za,||se ben si|strug- * ga a- *|mor * * sen-|
 d4 e2 d2 c2 d2 | B4 A8 | G6 d2 c3 B | A6 c2 B3 A | G6 B2 A3 G | ^F4 G4 d4 | c2 B2 A8 | G8 z4 | %97
w: * za * spe- *|ran- *|za, sen- * *|||* za, spe-|ran- * *|za,|
 c4 d4 e4 | f2 =B2 B4 c2 d2 | e>d c2 g8- | g4 _a2 g2 f2 g2 | e4 d8 | c6 g2 f3 e | d6 f2 e3 d | %104
w: se ben si|strrug- * ge a- *|mor * * sen-|* za * spe- *|ran- *|za, sen- * *||
 c6 e2 d3 c | =B4 c4 g4 | f2 e2 d8 |[M:4/4] c2 ge f/e/ d3 | z2 dB3/2 A/G e2- | e/f/g cd B3 A | %110
w: |* za, spe-|ran- * *|za, tut- to'è ver, _ _|tut- to'è ver, _ ma|_ _ _ vo ser- vi- re,|
 G2 Gc A2 Ad | =B3 e c2 f2- | f/g/_a fg e>d c2!D.C.! |] %113
w: * tut- to'è ver, tut- toè|ver, è ver ma-|* * * vo ser- vi- re, *|
V:2
 z8 | z8 | z8 | z8 | z8 | z8 | z8 | z8 | z8 ||[M:3/2] z12 | z12 | z12 | z12 | z12 | z12 | z12 | %16
 z12 | z12 | z12 | z12 | z12 | z12 | z12 | z12 | z12 | z12 | z12 | z12 | z12 | z12 | z12 | z12 | %32
 z12 | z12 | z12 | z12 | z12 |[M:4/4] z8 | z8 | z8 | z8 | z8 | z8 | z8 :| z8 | z8 | z8 | z8 | z8 | %49
 z8 | z8 | z8 | z8 | z8 | z8 | z8 | z8 | z8 | z8 | z8 | z8 | z8 | z8 | z8 | z8 | z8 |"^Presto" z8 | %67
 z8 | z8 | z8 |[M:3/2] z12 | z12 | z12 | z12 | z12 | z12 | z12 | z12 | z12 | z12 | z12 | z12 | %82
 z12 | z12 | z12 | z12 | z12 | z12 | z12 | z12 | z12 | z12 | z12 | z12 | z12 | z12 | z12 | z12 | %98
 z12 | z12 | z12 | z12 | z12 | z12 | z12 | z12 | z12 |[M:4/4] z8 | z8 | z8 | z8 | z8 | z8 |] %113
V:3
 CB, _A,2 G,3 F, | E,F,/G,/ _A,2 G,F, E,D, | C,2 D,C, D,2 G,2 | CB, _A,2 G,2 G,,2 | %4
 G,F, E,2 D,C, B,,C, | D,E, F,E, F,2 B,B,, | C,2 D,E, D,C, =B,,G,, | C,2 D,C, D,2 G,,2 | %8
 C,2 D,C, D,2 G,,2 ||[M:3/2] C,4 C4 B,4 | _A,4 G,4 F,4 | G,8 G,,4 | C,8 C2 B,2 | _A,4 =E,8 | %14
 F,4 G,8 | _A,12 | G,12 | G,,4 G,4 F,4 | E,4 D,4 C,4 | D,12 | G,,8 G,2 A,2 | =B,12 | C8 =B,4 | %23
"^b" B,12 | _A,12 | G,12 | C8 =B,4 |"^b" C8 B,4 | _A,8 G,4 | C,12 | D,12 | G,12 | _A,8 G,4 | %33
 _A,4 G,4 F,4 | E,4 D,4 C,4 | F,4 F,,8 | G,,12 |[M:4/4] C,8 | G,,4 G,,3 C, | C,4 D,4 | %40
 G,,2 =E,2 F,2 ^F,2 | G,4 _A,3 G, | F,4 G,2 C,2 | CB, _A,2 G,4 :| E,8 | E,4 D,4 | %46
 C,2 CB, _A,2 G,2 | F,4 G,2 _A,2 | B,4 E,4 | C,=B,,C,D, E,F,G,_A, | G,4 G,,^F,,G,,A,, | %51
 B,,C,D,E, D,4 | D,=E,^F,D, G,D,E,F, | B,/G,/A,/B,/ D,2 G,/E,/F,/G,/ B,,2 | E,F,G,A, B,CDC | %55
 B,A, G,F,/E,/ D,C, B,,/D,/C,/B,,/ | F,/D,/E, F,2 B,4 | B,,A,,B,,C, D,=E,F,G, | F,4 F,G,A,=B, | %59
 C3 B, _A,B,/A,/ G,2 | F,2 G,2 C,4 | G,,^F,,G,,A,, B,,C,D,E, | D,4 D,=E,^F,D, | %63
 G,2 G,F, E,F,/E,/ D,2 | C,2 D,2 G,,4 | C,4 C,=B,,C,D, | E,F,G,_A, G,4 | %67
 G,F, E,2 _A,/C/B,/A,/ G,2 | F,2 G,_A, F,2 G,2 | C,4 z C/B,/ _A,/E,/F,/G,/ |[M:3/2] C12 | %71
 =B,4 _B,8 | A,4 _A,8 | G,12 | C12 | =B,4 _B,8 | A,4 _A,8 | G,12 | C12 | =B,4 _B,8 | A,4 _A,8 | %81
 G,12 | C,12 | =B,,4 _B,,8 | A,,4 _A,,8 | G,,4 G,4 F,4 | E,8 D,4 | C,4 F,8 | B,,12 | C,12 | D,12 | %91
 G,,12 | C,4 D,8 | E,4 C,8 | D,4 E,4 B,,4 | C,4 D,8 | E,4 F,4 G,4 | _A,12 | F,4 G,8 | C,12 | %100
 F,8 F,,4 | G,,12 | C,12 | F,4 G,8 | _A,4 F,8 | G,4 _A,4 E,4 | F,4 G,4 G,,4 |[M:4/4] C,8 | %108
 G,4 G,,3 C, | C,4 D,4 | G,,2 =E,2 F,2 ^F,2 | G,4 _A,3 G, | F,4 G,G,, C,2 |] %113

